svg/OSM-icons/tourism #734a08 °ffffff !label=entourism,deTourismus/30025;tourism=museum;!name=;!fee=;!smoking=;[addr];[contact];[internet];[wheelchair];!label=enmuseum,deMuseum.svg

<svg xmlns="http://www.w3.org/2000/svg" viewBox="0 0 580 580" enable-background="new 0 0 580 580"><path fill="#111" stroke="#eee" stroke-width="3.408" d="m66.28 1.768c-41.34 0-64.57 21.371-64.57 65.04v450.12c0 40.844 20.894 62.23 62.19 62.23h452.02c41.31 0 62.23-20.316 62.23-62.23v-450.12c0-42.601-20.923-65.04-63.52-65.04-.003 0-448.49-.143-448.35 0z"/><path fill="#fff" d="m501.24 444.27v-211.34h52.27v-58.906-1.306-13.378h-39.448l-220.92-74.923-225.11 74.923h-40.46v13.466 1.218 58.906h48.996v211.34h-22.903l-31.05 51.31 534.48-.93-29.08-50.37h-26.786m-302.06-211.34v211.34h-74.12v-211.34h74.12m48.49 0h82.48v211.34h-82.48v-211.34m130.97 0h74.12v211.34h-74.12v-211.34"/></svg>

<?xml version="1.0" encoding="utf-8"?>
<!-- Generator: Adobe Illustrator 15.0.0, SVG Export Plug-In . SVG Version: 6.00 Build 0)  -->
<!DOCTYPE svg PUBLIC "-//W3C//DTD SVG 1.1//EN" "http://www.w3.org/Graphics/SVG/1.1/DTD/svg11.dtd">
<svg version="1.1" xmlns="http://www.w3.org/2000/svg" xmlns:xlink="http://www.w3.org/1999/xlink" x="0px" y="0px" width="580px"
	 height="580px" viewBox="0 0 580 580" enable-background="new 0 0 580 580" xml:space="preserve">
<g id="Layer_2">
	<g id="g1327">
		<path id="path1329" fill="#111111" stroke="#EEEEEE" stroke-width="3.408" d="M66.275,1.768
			c-41.335,0-64.571,21.371-64.571,65.036v450.123c0,40.844,20.894,62.229,62.192,62.229H515.92
			c41.307,0,62.229-20.316,62.229-62.229V66.804c0-42.601-20.923-65.036-63.522-65.036C514.624,1.768,66.133,1.625,66.275,1.768z"/>
	</g>
</g>
<g id="svg2" inkscape:output_extension="org.inkscape.output.svg.inkscape" sodipodi:version="0.32" sodipodi:docname="waste_bin.svg" inkscape:version="0.46" xmlns:dc="http://purl.org/dc/elements/1.1/" xmlns:cc="http://creativecommons.org/ns#" xmlns:rdf="http://www.w3.org/1999/02/22-rdf-syntax-ns#" xmlns:svg="http://www.w3.org/2000/svg" xmlns:sodipodi="http://sodipodi.sourceforge.net/DTD/sodipodi-0.dtd" xmlns:inkscape="http://www.inkscape.org/namespaces/inkscape">
	
		<sodipodi:namedview  id="base" inkscape:window-width="1567" inkscape:window-x="351" inkscape:window-height="1002" inkscape:current-layer="svg2" inkscape:pageshadow="2" inkscape:window-y="24" inkscape:pageopacity="0.0" gridtolerance="10.0" objecttolerance="10.0" guidetolerance="10.0" inkscape:zoom="0.47226387" showgrid="false" borderopacity="1.0" bordercolor="#666666" pagecolor="#ffffff" inkscape:cy="396.97669" inkscape:cx="-236.39127" inkscape:window-maximized="0">
		</sodipodi:namedview>
	<defs>
		
		
			<inkscape:perspective  id="perspective2441" inkscape:persp3d-origin="290 : 193.33333 : 1" inkscape:vp_z="580 : 290 : 1" inkscape:vp_y="0 : 1000 : 0" inkscape:vp_x="0 : 290 : 1" sodipodi:type="inkscape:persp3d">
			</inkscape:perspective>
		
			<inkscape:perspective  id="perspective2466" inkscape:persp3d-origin="372.04724 : 350.78739 : 1" inkscape:vp_z="744.09448 : 526.18109 : 1" inkscape:vp_y="0 : 1000 : 0" inkscape:vp_x="0 : 526.18109 : 1" sodipodi:type="inkscape:persp3d">
			</inkscape:perspective>
		
			<inkscape:perspective  id="perspective3333" inkscape:persp3d-origin="372.04724 : 350.78739 : 1" inkscape:vp_z="744.09448 : 526.18109 : 1" inkscape:vp_y="0 : 1000 : 0" inkscape:vp_x="0 : 526.18109 : 1" sodipodi:type="inkscape:persp3d">
			</inkscape:perspective>
		
			<inkscape:perspective  id="perspective3401" inkscape:persp3d-origin="372.04724 : 350.78739 : 1" inkscape:vp_z="744.09448 : 526.18109 : 1" inkscape:vp_y="0 : 1000 : 0" inkscape:vp_x="0 : 526.18109 : 1" sodipodi:type="inkscape:persp3d">
			</inkscape:perspective>
		
			<inkscape:perspective  id="perspective3464" inkscape:persp3d-origin="372.04724 : 350.78739 : 1" inkscape:vp_z="744.09448 : 526.18109 : 1" inkscape:vp_y="0 : 1000 : 0" inkscape:vp_x="0 : 526.18109 : 1" sodipodi:type="inkscape:persp3d">
			</inkscape:perspective>
		
			<inkscape:perspective  id="perspective3581" inkscape:persp3d-origin="225 : 150 : 1" inkscape:vp_z="450 : 225 : 1" inkscape:vp_y="0 : 1000 : 0" inkscape:vp_x="0 : 225 : 1" sodipodi:type="inkscape:persp3d">
			</inkscape:perspective>
		
			<inkscape:perspective  id="perspective4312" inkscape:persp3d-origin="225 : 150 : 1" inkscape:vp_z="450 : 225 : 1" inkscape:vp_y="0 : 1000 : 0" inkscape:vp_x="0 : 225 : 1" sodipodi:type="inkscape:persp3d">
			</inkscape:perspective>
	</defs>
	<path fill="#FFFFFF" d="M501.244,444.273V232.935h52.274v-58.906v-1.306v-13.378H514.07L293.151,84.422L68.044,159.345h-40.46
		v13.466v1.218v58.906H76.58v211.339H53.677l-31.045,51.305l534.482-0.93l-29.084-50.375H501.244z M199.184,232.935v211.339h-74.117
		V232.935H199.184z M247.671,232.935h82.482v211.339h-82.482V232.935z M378.64,232.935h74.118v211.339H378.64V232.935z"/>
</g>
</svg>
